X:1
T:Anna Barbauld, 1772 86. 86. (C. M.)
T:E b Major Oliver Holden, 1800
T:Welcome Morn No copyright. Transcribed from Plain Psalmody, 1800.
%%score [ 1 2 3 ]
L:1/8
M:4/4
K:Eb
V:1 treble nm="Treble" snm="Tr"
V:2 treble-8 nm="Tenor" snm="T"
V:3 bass nm="Bass" snm="B"
V:1
 E4 | G2 G2 G2 B2 | c4 d4 | e6 e2 | c2 c2 B2 B2 | G6 A2 | A6 B2 | c6 d2 | e4 f4 | e6 c2 | c4 d4 | %11
 e4 c4 | B6 G2 | B2 B2 B2 c2 | d2 d2 d2 c2 | B2 B2 A2 G2 | F6 z2 | z8 | z8 | z8 | z4 z2 G2 | %21
 B2 B2 c2 e2 | c2 c2 B2 G2 | (A2 B2 c2 d2 | e4) (c2 A2) | G4 F4 | E8 |] %27
V:2
"^1. Again the Lord of life and light  Awakes the kindling ray, Unseals the eyelids of the morn, And pours in –" G4 | %1
 B2 B2 B2 e2 | e4 B4 | B6 B2 | e2 e2 d2 d2 | e6 z2 | z8 | z8 | z8 | z4 z2 e2 | e4 d4 | %11
"^1. –creasing  day. This day be grateful homage paid, And loud hosannas sung, Let gladness dwell in every heart, And" c4 =A4 | %12
 B6 B2 | G2 B2 e2 e2 | f2 d2 B2 e2 | e2 e2 c2 e2 | d6 G2 | A2 G2 A2 c2 | B2 c2 d2 f2 | %19
"^1. praise on every tongue,  Let gladness dwell in every heart, And praise ___________     on           every    tongue." e2 d2 c2 c2 | %20
 B6 B2 | e2 e2 e2 B2 | e2 e2 e2 e2 | (c2 B2 A2 B2 | c4) e4 | B4 A4 | G8 |] %27
V:3
 E,4 | E,2 E,2 E,2 G,2 | A,4 B,4 | E,6 G,2 | A,2 A,2 B,2 B,,2 | E,6 F,2 | F,6 G,2 | A,6 B,2 | %8
 C4 B,4 | E,6 A,2 | A,4 B,4 | F,4 F,4 | B,,6 E,2 | E,2 E,2 E,2 E,2 | B,2 B,2 B,2 A,2 | %15
 G,2 G,2 F,2 E,2 | B,,6 E,2 | F,2 E,2 F,2 A,2 | G,2 A,2 B,2 B,2 | C2 B,2 A,2 A,2 | G,6 E,2 | %21
 G,2 G,2 A,2 G,2 | A,2 A,2 G,2 G,2 | (F,2 D,2 E,2 F,2 | G,2 E,2) A,4 | B,4 B,,4 | E,8 |] %27

